X:35
T:Chattering Magpie (reel), The   
B:CRE1.077 (Meaig Chabach)
F:file ID: cre.1/035chatt
S:John Kelly
M:C
L:1/8
Q:180
R:reel
K:G
GA|BGAF DGG2|G2ge fdcA|BGG2 DGG2|(3EFG AB c2dc|
BGAF DGG2|G2ge fdcA|BGG2 DGBG|FGAB c2Bc||
dgg2 gagf|dgge fgaf|dgg2 g3a|bgag fdcA|
dgg2 gagf|dgge fgaf|dgg2 g3a|bgag fdcA||G8||

%%%

